X:152
T:Betty Blue THO1.152
M:C|
L:1/8
Z:vmp. Peter Dunk 2012.from a transcription by Fynn Titford-Mock 2006
B:Thompson's Compleat Collection of 200 Favourite Country Dances Vol.I,1758
Q:1/2=120
K:D
a3 b a2g2|f3 e d2f2|a3 b agfe|d4d4|a3 b a2g2|f3 e d2f2|
a3 b a2f2|d4d4::e3 f e2d2|c3 B A2c2|e3 f e2c2|A4A4|e3 f e2d2|
e3 f e2c2|A6a2|A6 a2|A6 a2|A2a2A2a2|A4A4|e3 g f2e2|
d3 c d2e2|f3 gf2e2|d4d4|f3 gf2e2|d3 c d2g2|a2f2g2e2|d4d4:|

